img/philosophy-icon6.svg

<svg width="100" height="100" viewBox="0 0 100 100" fill="none" xmlns="http://www.w3.org/2000/svg">
<path d="M50.0009 12.7759C36.7923 12.7759 26.0461 23.522 26.0461 36.7307C26.0461 49.9393 36.7923 60.6854 50.0009 60.6854C63.2096 60.6854 73.9557 49.9393 73.9557 36.7307C73.9557 23.522 63.2096 12.7759 50.0009 12.7759ZM50.0009 57.4915C38.5537 57.4915 29.2401 48.1778 29.2401 36.7307C29.2401 25.2835 38.5537 15.9698 50.0009 15.9698C61.4481 15.9698 70.7617 25.2835 70.7617 36.7307C70.7617 48.1778 61.4481 57.4915 50.0009 57.4915Z" fill="#3391AC"/>
<path d="M50.0009 19.1641C40.3152 19.1641 32.4341 27.0452 32.4341 36.7309C32.4341 46.4166 40.3152 54.2977 50.0009 54.2977C59.6866 54.2977 67.5677 46.4166 67.5677 36.7309C67.5677 27.0452 59.6866 19.1641 50.0009 19.1641ZM50.0009 51.1038C42.0751 51.1038 35.6281 44.6567 35.6281 36.7309C35.6281 28.8051 42.0751 22.358 50.0009 22.358C57.9268 22.358 64.3738 28.8051 64.3738 36.7309C64.3738 44.6567 57.9268 51.1038 50.0009 51.1038Z" fill="#3391AC"/>
<path d="M85.0404 40.7519L81.1869 38.013C80.7573 37.708 80.513 37.2417 80.513 36.7307C80.513 36.2196 80.7573 35.7549 81.1853 35.4499L85.0404 32.7094C86.3739 31.7592 86.9983 30.1255 86.6262 28.5509C86.2605 26.9843 84.9877 25.7865 83.3811 25.4975L78.6892 24.6622C78.1478 24.5648 77.7055 24.2342 77.4739 23.7551C77.3477 23.4901 77.1832 22.9535 77.5138 22.3514L79.7688 18.2519C80.5529 16.8242 80.3948 15.0867 79.3615 13.8187C78.3475 12.5731 76.6786 12.0397 75.1151 12.4597L70.5222 13.691C69.9776 13.8379 69.4235 13.7213 68.9907 13.3747C68.5915 13.0538 68.3743 12.5842 68.3966 12.086L68.6058 7.43556C68.6793 5.81941 67.769 4.32623 66.2886 3.62995C64.8258 2.94484 63.093 3.17481 61.8698 4.21604L58.2765 7.27427C57.8629 7.6288 57.312 7.75656 56.7722 7.63678C56.2484 7.51541 55.8284 7.17525 55.6208 6.69935L53.7427 2.42263C53.0975 0.951803 51.6299 0 50.001 0C48.372 0 46.9044 0.951803 46.2592 2.42263L44.3812 6.70255C44.1736 7.17685 43.7536 7.51701 43.2297 7.63838C42.6868 7.75656 42.139 7.63039 41.7254 7.27586L38.1338 4.21923C36.9121 3.178 35.1761 2.94484 33.7133 3.63154C32.2345 4.32623 31.3242 5.81782 31.3945 7.43716L31.6037 12.0876C31.6276 12.5858 31.4105 13.0538 31.0112 13.3763C30.58 13.7229 30.0259 13.8379 29.4797 13.6925L24.8852 12.4597C23.3265 12.0413 21.6561 12.5699 20.6388 13.8171C19.6055 15.0835 19.4443 16.8242 20.23 18.2503L22.4849 22.3514C22.8155 22.9535 22.651 23.4901 22.5248 23.7551C22.2933 24.2358 21.8509 24.5664 21.3079 24.6622L16.616 25.4975C15.011 25.7865 13.7366 26.9843 13.3725 28.5477C13.0036 30.1271 13.6248 31.7608 14.9599 32.711L18.8118 35.4483C19.2414 35.7533 19.4858 36.2196 19.4858 36.7307C19.4858 37.2417 19.2414 37.7064 18.8134 38.0114L14.9583 40.7519C13.6248 41.7021 13.0004 43.3358 13.3725 44.9104C13.7382 46.4771 15.011 47.6748 16.6176 47.9638L21.3095 48.7991C21.8509 48.8965 22.2933 49.2271 22.5248 49.7062C22.651 49.9713 22.8155 50.5078 22.4849 51.1099L20.23 55.2094C19.4458 56.6371 19.6039 58.3746 20.6372 59.6426C21.6513 60.8866 23.3185 61.4216 24.8836 61.0016L29.4797 59.7688C30.0275 59.6282 30.58 59.74 31.0112 60.085C31.4105 60.406 31.6276 60.8755 31.6053 61.3737L31.3961 66.0241C31.3226 67.6403 32.2329 69.1335 33.7133 69.8298C35.1761 70.5149 36.9089 70.2833 38.1322 69.2437L41.7254 66.1854C42.1406 65.8309 42.6884 65.7031 43.2297 65.8229C43.7536 65.9443 44.1736 66.2845 44.3812 66.7604L46.2592 71.0371C46.9044 72.5095 48.372 73.4613 50.001 73.4613C51.6299 73.4613 53.0975 72.5095 53.7427 71.0387L55.6208 66.7588C55.8284 66.2845 56.2484 65.9443 56.7722 65.8229C57.3136 65.7016 57.8629 65.8309 58.2765 66.1854L61.8682 69.2421C63.0898 70.2817 64.8274 70.5165 66.2886 69.8298C67.7674 69.1351 68.6777 67.6435 68.6074 66.0241L68.3982 61.3737C68.3743 60.8755 68.5915 60.4076 68.9907 60.085C69.4235 59.7384 69.9776 59.6266 70.5222 59.7688L75.1167 61.0016C76.6802 61.4184 78.3443 60.8898 79.3631 59.6442C80.3964 58.3778 80.5577 56.6371 79.772 55.211L77.517 51.1099C77.1864 50.5078 77.3509 49.9713 77.4771 49.7062C77.7086 49.2255 78.151 48.8949 78.694 48.7991L83.3859 47.9638C84.9909 47.6748 86.2653 46.4771 86.6294 44.9136C86.9967 43.3342 86.3739 41.7005 85.0404 40.7519ZM83.5201 44.187C83.4418 44.508 83.1687 44.7571 82.8206 44.8194L78.1319 45.6546C76.586 45.9293 75.2637 46.929 74.5945 48.3296C73.9286 49.7205 73.9733 51.2952 74.7175 52.6478L76.9724 56.7505C77.1289 57.0347 77.0954 57.3701 76.8878 57.624C76.669 57.8923 76.2953 58.0169 75.9424 57.9178L71.3463 56.685C69.8355 56.2809 68.2018 56.6195 66.9881 57.5969C65.7856 58.5614 65.1372 59.9923 65.2059 61.5175L65.4151 66.1647C65.4294 66.4905 65.2394 66.7939 64.9296 66.9376C64.599 67.0909 64.2125 67.043 63.9394 66.8099L60.3462 63.7516C59.1549 62.736 57.5866 62.3591 56.0535 62.7104C54.5364 63.0601 53.3099 64.0694 52.6935 65.4748L50.8154 69.7547C50.5439 70.3759 49.4548 70.3775 49.1849 69.7531L47.3069 65.4764C46.6888 64.0678 45.4639 63.0585 43.9468 62.7104C43.577 62.6255 43.1988 62.5826 42.8193 62.5826C41.6663 62.5826 40.5548 62.9867 39.6557 63.7516L36.0609 66.8115C35.791 67.0446 35.4013 67.0909 35.0723 66.9376C34.7641 66.7923 34.5741 66.4905 34.5885 66.1679L34.7977 61.5175C34.8663 59.9907 34.2164 58.5598 33.0138 57.5953C31.7969 56.6195 30.1632 56.2809 28.6557 56.685L24.0579 57.9178C23.7082 58.0137 23.3345 57.8923 23.1157 57.6256C22.9097 57.3733 22.8762 57.0299 23.0295 56.7489L25.2844 52.6478C26.0286 51.2952 26.0733 49.7205 25.4074 48.3296C24.7383 46.929 23.416 45.9293 21.8717 45.6546L17.1829 44.8194C16.8332 44.7571 16.5585 44.508 16.4834 44.1838C16.41 43.874 16.5393 43.5482 16.8108 43.3533L20.6659 40.6129C21.9467 39.7026 22.6813 38.2861 22.6813 36.7291C22.6813 35.172 21.9467 33.7571 20.6643 32.8436L16.8124 30.1064C16.5393 29.9115 16.41 29.5857 16.4834 29.2727C16.5585 28.9517 16.8332 28.7026 17.1813 28.6403L21.8701 27.8051C23.416 27.5304 24.7383 26.5307 25.4074 25.1302C26.0733 23.7392 26.0286 22.1646 25.2844 20.8119L23.0295 16.7093C22.873 16.425 22.9065 16.0896 23.1157 15.8341C23.3345 15.5674 23.7114 15.446 24.0595 15.5419L28.6557 16.7747C30.1632 17.1772 31.7985 16.8402 33.0138 15.8629C34.2164 14.8983 34.8647 13.4674 34.7961 11.9423L34.5869 7.29503C34.5725 6.96924 34.7625 6.66581 35.0723 6.52209C35.4013 6.36878 35.7894 6.41669 36.0625 6.64985L39.6557 9.70807C40.8486 10.7238 42.4169 11.1022 43.9484 10.7493C45.4655 10.3996 46.692 9.39027 47.3084 7.98492L49.1865 3.705C49.458 3.08378 50.5471 3.08218 50.817 3.7066L52.6951 7.98333C53.3131 9.39187 54.538 10.4012 56.0551 10.7493C57.5882 11.1022 59.1549 10.7222 60.3478 9.70807L63.9426 6.64825C64.2125 6.41509 64.6006 6.36878 64.9312 6.52209C65.2394 6.66741 65.4294 6.96924 65.4151 7.29183L65.2059 11.9423C65.1372 13.469 65.7872 14.8999 66.9897 15.8644C68.205 16.8402 69.8371 17.1772 71.3479 16.7747L75.9456 15.5419C76.2969 15.4444 76.6706 15.5674 76.8878 15.8341C77.0938 16.0864 77.1273 16.4298 76.974 16.7108L74.7191 20.8119C73.9749 22.1646 73.9302 23.7392 74.5961 25.1302C75.2653 26.5307 76.5876 27.5304 78.1319 27.8051L82.8206 28.6403C83.1703 28.7026 83.445 28.9517 83.5201 29.2759C83.5935 29.5857 83.4642 29.9115 83.1927 30.1064L79.3376 32.8468C78.0568 33.7571 77.3222 35.1736 77.3222 36.7307C77.3222 38.2877 78.0568 39.7026 79.3392 40.6161L83.1927 43.3549C83.4642 43.5482 83.5935 43.874 83.5201 44.187Z" fill="#3391AC"/>
<path d="M50.0009 23.5396L46.1234 31.3951L37.4566 32.6535L43.728 38.7684L42.2476 47.4017L50.0009 43.3262L57.7527 47.4033L56.2723 38.77L62.5436 32.6551L53.8768 31.3967L50.0009 23.5396ZM53.5111 41.5631L50.0009 39.717L46.4907 41.5631L47.1599 37.6521L44.3204 34.8845L48.2458 34.316L50.0009 30.7579L51.7576 34.316L55.683 34.8845L52.8435 37.6521L53.5111 41.5631ZM64.3738 94.8322L61.1798 93.2352V70.2673H57.9858V91.6382L50.0009 87.6457L42.016 91.6382V70.2673H38.822V93.2352L35.6281 94.8322V73.4613H32.4341V100L50.0009 91.2166L67.5677 100V73.4613H64.3738V94.8322Z" fill="#3391AC"/>
</svg>

<svg width="100" height="100" fill="none" xmlns="http://www.w3.org/2000/svg"><path d="M50 12.776c-13.208 0-23.954 10.746-23.954 23.955 0 13.208 10.746 23.954 23.955 23.954 13.209 0 23.955-10.746 23.955-23.954 0-13.209-10.746-23.955-23.955-23.955zm0 44.716c-11.446 0-20.76-9.314-20.76-20.761 0-11.448 9.314-20.761 20.76-20.761 11.448 0 20.762 9.313 20.762 20.76 0 11.448-9.314 20.762-20.761 20.762z" fill="#3391AC"/><path d="M50 19.164c-9.685 0-17.566 7.881-17.566 17.567s7.881 17.567 17.567 17.567 17.567-7.881 17.567-17.567S59.687 19.164 50 19.164zm0 31.94c-7.925 0-14.372-6.447-14.372-14.373 0-7.926 6.447-14.373 14.373-14.373 7.926 0 14.373 6.447 14.373 14.373 0 7.926-6.447 14.373-14.373 14.373z" fill="#3391AC"/><path d="M85.04 40.752l-3.853-2.739a1.558 1.558 0 01-.674-1.282c0-.511.244-.976.672-1.281l3.855-2.74a3.976 3.976 0 001.586-4.16 4.05 4.05 0 00-3.245-3.053l-4.692-.835a1.653 1.653 0 01-1.215-.907 1.509 1.509 0 01.04-1.404l2.255-4.1a3.963 3.963 0 00-.407-4.432 4.107 4.107 0 00-4.247-1.36l-4.593 1.232a1.706 1.706 0 01-1.531-.316 1.55 1.55 0 01-.594-1.289l.209-4.65a4.003 4.003 0 00-2.317-3.806 4.127 4.127 0 00-4.42.586l-3.593 3.058a1.719 1.719 0 01-1.504.363 1.637 1.637 0 01-1.151-.938l-1.878-4.276A4.075 4.075 0 0050 0a4.075 4.075 0 00-3.742 2.423l-1.878 4.28a1.639 1.639 0 01-1.151.935 1.721 1.721 0 01-1.505-.362l-3.591-3.057a4.127 4.127 0 00-4.42-.587 4.008 4.008 0 00-2.32 3.805l.21 4.65a1.55 1.55 0 01-.593 1.29 1.709 1.709 0 01-1.531.316l-4.595-1.233a4.111 4.111 0 00-4.246 1.357 3.96 3.96 0 00-.409 4.433l2.255 4.101c.33.602.166 1.14.04 1.404-.232.48-.674.811-1.217.907l-4.692.835c-1.605.29-2.88 1.487-3.243 3.05a3.984 3.984 0 001.587 4.164l3.852 2.737a1.558 1.558 0 01.002 2.563l-3.856 2.74a3.976 3.976 0 00-1.585 4.16 4.05 4.05 0 003.245 3.053l4.692.835c.54.098.983.428 1.215.907.126.265.29.802-.04 1.404l-2.255 4.1a3.963 3.963 0 00.407 4.433 4.11 4.11 0 004.247 1.359l4.596-1.233c.547-.14 1.1-.029 1.531.316.4.321.617.79.594 1.289l-.209 4.65a4.003 4.003 0 002.317 3.806 4.13 4.13 0 004.42-.586l3.592-3.059a1.719 1.719 0 011.505-.362c.524.121.944.462 1.151.937l1.878 4.277A4.074 4.074 0 0050 73.461a4.075 4.075 0 003.742-2.422l1.878-4.28a1.64 1.64 0 011.151-.936 1.713 1.713 0 011.505.362l3.591 3.057a4.13 4.13 0 004.42.588 4.008 4.008 0 002.32-3.806l-.21-4.65a1.55 1.55 0 01.593-1.289 1.72 1.72 0 011.531-.316l4.595 1.233a4.115 4.115 0 004.246-1.358 3.96 3.96 0 00.409-4.433l-2.255-4.101a1.509 1.509 0 01-.04-1.404c.232-.48.674-.811 1.217-.907l4.692-.835c1.605-.29 2.88-1.487 3.243-3.05a3.987 3.987 0 00-1.589-4.162zm-1.52 3.435a.865.865 0 01-.7.632l-4.688.836a4.862 4.862 0 00-3.538 2.675 4.674 4.674 0 00.124 4.318l2.254 4.102a.771.771 0 01-.084.874.91.91 0 01-.946.294l-4.596-1.233a4.942 4.942 0 00-4.358.912 4.71 4.71 0 00-1.782 3.92l.21 4.648a.817.817 0 01-.486.773.924.924 0 01-.99-.128l-3.594-3.058a4.88 4.88 0 00-4.292-1.042 4.808 4.808 0 00-3.36 2.765l-1.879 4.28c-.271.62-1.36.623-1.63-.002l-1.878-4.277a4.802 4.802 0 00-3.36-2.766 5.039 5.039 0 00-1.128-.127 4.858 4.858 0 00-3.163 1.169l-3.595 3.06a.92.92 0 01-.989.126.818.818 0 01-.483-.77l.209-4.65a4.713 4.713 0 00-1.784-3.923 4.95 4.95 0 00-4.358-.91l-4.598 1.233a.914.914 0 01-.942-.292.785.785 0 01-.087-.877l2.255-4.101a4.674 4.674 0 00.123-4.318 4.862 4.862 0 00-3.535-2.675l-4.69-.836a.857.857 0 01-.699-.635.8.8 0 01.328-.83l3.855-2.741a4.717 4.717 0 002.015-3.884c0-1.557-.734-2.972-2.017-3.885l-3.852-2.738a.8.8 0 01-.329-.833.858.858 0 01.698-.633l4.69-.835a4.862 4.862 0 003.536-2.675 4.675 4.675 0 00-.123-4.318l-2.255-4.103a.772.772 0 01.087-.875.918.918 0 01.944-.292l4.596 1.233a4.95 4.95 0 004.358-.912 4.71 4.71 0 001.782-3.92l-.21-4.648a.817.817 0 01.486-.773.924.924 0 01.99.128l3.594 3.058a4.877 4.877 0 004.292 1.041 4.808 4.808 0 003.36-2.764l1.879-4.28c.271-.621 1.36-.623 1.63.002l1.878 4.276a4.802 4.802 0 003.36 2.766 4.881 4.881 0 004.293-1.04l3.595-3.06a.92.92 0 01.988-.127.819.819 0 01.484.77l-.21 4.65a4.713 4.713 0 001.785 3.922 4.952 4.952 0 004.358.91l4.598-1.232a.91.91 0 01.942.292c.206.252.24.596.086.877l-2.255 4.1a4.675 4.675 0 00-.123 4.32c.67 1.4 1.992 2.4 3.536 2.674l4.689.835a.86.86 0 01.7.636.8.8 0 01-.328.83l-3.855 2.74a4.717 4.717 0 00-2.016 3.885c0 1.557.735 2.972 2.017 3.885l3.854 2.739a.8.8 0 01.327.832z" fill="#3391AC"/><path d="M50 23.54l-3.877 7.855-8.666 1.259 6.271 6.114-1.48 8.634L50 43.326l7.752 4.077-1.48-8.633 6.27-6.115-8.666-1.258L50 23.54zm3.511 18.023l-3.51-1.846-3.51 1.846.669-3.91-2.84-2.768 3.926-.569L50 30.758l1.757 3.558 3.925.569-2.84 2.767.668 3.911zm10.863 53.27l-3.194-1.598V70.267h-3.194v21.371L50 87.646l-7.985 3.992v-21.37h-3.194v22.967l-3.194 1.597v-21.37h-3.194V100L50 91.217 67.568 100V73.461h-3.194v21.371z" fill="#3391AC"/></svg>
